X:51 % number
T:Bryd One Brere % title
C: % composer
O:Early 13th C. English % origin.
S:http://home.uchicago.edu/~atterlep/Music/Songs/brydonebrere.htm
M:3/4 % meter
L:1/4 % length of shortest note
Q: % tempo
K:G % key
V:1 % voice 1
A2 G/F/ | E2 E/F/ | A A G/F/ | E2 E | c2 B |
w:Brid o-ne bre--re, brid, brid o-ne bre-re, Kind is
w:Ich am so bli-the so bryg-hit o-ne bre-re, Whan I
w:Mik-te hic hi-re_ at wil-le_ ha-ven, Ste-de-
(3c/B/c/ A B | c/B/ c/A/ B | c2 c | c/B/ A B |
w:co---me of lo-ve, lo-ve to- cra-ve. Blith---ful
w:se___ that hen---de in hal-le Yhe__ is
w:fast___ of lo-ve, lo-ve-li, tre-we, Of__ mi
A2 B | B/A/ G/A/ G/F/ | (3d/c/B/ d c/B/ |
w:bri-d on_ me_ thu_ re----we_
w:quit of lime,_ lo--ve-lich, tre---we, Yhe_
w:sor-we yhe_ may_ me_ sa----ven;_
G/F/ (3G/F/E/ F | G2 B | B/A/ G/A/ G/F/ | G2 G |]
w:or_ greith,__ lef, greith thou me---- my-- gra-ve.
w:___ ys__ fayr and flur___ of_ alle._
w:Ioye____ and blise were eere___ me_ ne-we.

